static/logos/facebook-glyph-color.svg

<svg width="32" height="32" viewBox="0 0 32 32" fill="none" xmlns="http://www.w3.org/2000/svg">
<circle cx="16" cy="16" r="14" fill="url(#paint0_linear_1261_208)"/>
<path d="M21.2137 20.2816L21.8356 16.3301H17.9452V13.767C17.9452 12.6857 18.4877 11.6311 20.2302 11.6311H22V8.26699C22 8.26699 20.3945 8 18.8603 8C15.6548 8 13.5617 9.89294 13.5617 13.3184V16.3301H10V20.2816H13.5617V29.8345C14.2767 29.944 15.0082 30 15.7534 30C16.4986 30 17.2302 29.944 17.9452 29.8345V20.2816H21.2137Z" fill="white"/>
<defs>
<linearGradient id="paint0_linear_1261_208" x1="16" y1="2" x2="16" y2="29.917" gradientUnits="userSpaceOnUse">
<stop stop-color="#18ACFE"/>
<stop offset="1" stop-color="#0163E0"/>
</linearGradient>
</defs>
</svg>

<svg xmlns="http://www.w3.org/2000/svg" width="64" height="64" fill="none" viewBox="0 0 32 32"><circle cx="16" cy="16" r="14" fill="url(#a)"/><path fill="#fff" d="m21.214 20.282.622-3.952h-3.89v-2.563c0-1.081.542-2.136 2.284-2.136H22V8.267S20.395 8 18.86 8c-3.205 0-5.298 1.893-5.298 5.318v3.012H10v3.952h3.562v9.552q1.073.165 2.191.166 1.12 0 2.192-.166v-9.552z"/><defs><linearGradient id="a" x1="16" x2="16" y1="2" y2="29.917" gradientUnits="userSpaceOnUse"><stop stop-color="#18ACFE"/><stop offset="1" stop-color="#0163E0"/></linearGradient></defs></svg>
